src/images/logo_main.svg

<svg width="320" height="320" viewBox="0 0 320 320" fill="none" xmlns="http://www.w3.org/2000/svg">
<path opacity="0.2" fill-rule="evenodd" clip-rule="evenodd" d="M319.996 159.628C319.996 163.36 319.868 167.061 319.616 170.729V238.875V239.254V240.375V240.754V318.5V320H318.116H240.466H240.087H238.966H238.587H160.938H160.558H159.438H159.058H81.4083H81.0287H79.9083H79.5287H1.87947H0.37947V318.5V240.754V240.375V239.254V238.875V170.709C0.127871 167.048 0 163.353 0 159.628C0 155.904 0.127871 152.209 0.37947 148.547V81.5036V81.125H0.378982V79.625V1.87859V0.37859H1.87898H79.5282H81.0282V0.379058H81.4084H148.885C152.557 0.127732 156.263 0 159.998 0C163.734 0 167.44 0.127732 171.111 0.379058H238.587H238.967H240.087H240.467H318.116H319.616V1.87906V79.6255V81.1255L319.616 81.5036V148.528C319.868 152.196 319.996 155.897 319.996 159.628ZM318.116 81.5036V135.076C315.145 115.875 308.744 97.8031 299.557 81.5036H318.116ZM318.116 148.581C316.436 124.305 309.265 101.537 297.833 81.5036H240.466V159.25H318.116V148.581ZM318.116 79.6255H298.482C284.526 55.6314 264.485 35.598 240.467 21.6274V1.87906H318.116V79.6255ZM296.744 79.6255C283.087 56.441 263.675 37.0366 240.467 23.3656V79.6255H296.744ZM238.587 1.87906V20.551C222.18 11.3031 203.974 4.86144 184.624 1.87906H238.587ZM238.587 22.2756C218.435 10.7747 195.51 3.56062 171.059 1.87906H160.937V79.6255H238.587V22.2756ZM81.4084 1.87906H135.373C116.022 4.86152 97.8153 11.3035 81.4084 20.5517V1.87906ZM148.937 1.87906C124.486 3.56066 101.56 10.775 81.4084 22.2764V79.6255H159.058V1.87906H148.937ZM79.5282 1.87859V21.6284C55.5106 35.5988 35.4703 55.6317 21.5147 79.625H1.87898V1.87859H79.5282ZM79.5282 23.3666C56.3208 37.0375 36.9098 56.4413 23.2531 79.625H79.5282V23.3666ZM1.87947 81.5036H20.439C11.2512 97.8055 4.84988 115.88 1.87947 135.085V81.5036ZM1.87947 161.129V170.657C3.58763 195.394 10.9986 218.566 22.8102 238.875H79.5287V161.129H1.87947ZM1.87947 238.875V184.172C4.91819 203.818 11.5474 222.282 21.0773 238.875H1.87947ZM1.87947 240.754H22.1733C36.0976 264.25 55.8862 283.876 79.5287 297.629V318.5H1.87947V240.754ZM81.4083 318.5V298.705C100.321 309.366 121.626 316.298 144.319 318.5H81.4083ZM81.4083 296.98C104.318 310.056 130.812 317.59 159.058 317.754V240.754H81.4083V296.98ZM238.587 318.5H175.678C198.37 316.298 219.674 309.366 238.587 298.706V318.5ZM160.938 317.754C189.183 317.591 215.678 310.056 238.587 296.981V240.754H160.938V317.754ZM240.466 318.5V297.629C264.109 283.877 283.899 264.25 297.823 240.754H318.116V318.5H240.466ZM240.466 295.891C263.299 282.441 282.457 263.442 296.076 240.754H240.466V295.891ZM240.466 238.875H297.186C308.995 218.572 316.405 195.406 318.116 170.676V161.129H240.466V238.875ZM318.116 184.18C315.076 203.824 308.448 222.284 298.919 238.875H318.116V184.18ZM23.9202 240.754C37.5387 263.442 56.6963 282.441 79.5287 295.89V240.754H23.9202ZM22.1638 81.5036C10.7283 101.542 3.55626 124.317 1.87947 148.6V159.25H79.5287V81.5036H22.1638ZM81.4083 81.5036H159.058V86.6228H125.027H119.387H99.0806V159.25H81.4083V81.5036ZM99.0806 161.129H81.4083V238.875H159.058V161.129H125.027V233.188H99.0806V161.129ZM125.027 159.25H159.058V112.554H125.027V159.25ZM160.938 86.6228H198.353H203.994H224.3V159.25H238.587V81.5036H160.938V86.6228ZM224.3 161.129H238.587V238.875H160.938V161.129H198.353V233.188H224.3V161.129ZM198.353 159.25V112.554H160.938V159.25H198.353Z" fill="white"/>
</svg>

<svg xmlns="http://www.w3.org/2000/svg" fill="none" viewBox="0 0 320 320"><path fill="#fff" fill-rule="evenodd" d="M319.996 159.628c0 3.732-.128 7.433-.38 11.101V320H.3795V170.709A161.6018 161.6018 0 0 1 0 159.628c0-3.724.1279-7.419.3795-11.081V81.125H.379V.3786h80.6492V.379h67.8568C152.557.1277 156.263 0 159.998 0c3.736 0 7.442.1277 11.113.379h148.505v148.149c.252 3.668.38 7.369.38 11.1Zm-1.88-78.1244v53.5724c-2.971-19.201-9.372-37.2729-18.559-53.5724h18.559Zm0 67.0774c-1.68-24.276-8.851-47.044-20.283-67.0774h-57.367V159.25h77.65v-10.669Zm0-68.9555h-19.634c-13.956-23.9941-33.997-44.0275-58.015-57.9981V1.8791h77.649v77.7464Zm-21.372 0c-13.657-23.1845-33.069-42.5889-56.277-56.2599v56.2599h56.277ZM238.587 1.8791V20.551c-16.407-9.2479-34.613-15.6896-53.963-18.672h53.963Zm0 20.3965c-20.152-11.5009-43.077-18.715-67.528-20.3965h-10.122v77.7464h77.65V22.2756ZM81.4084 1.8791h53.9646c-19.351 2.9824-37.5577 9.4244-53.9646 18.6726V1.8791Zm67.5286 0c-24.451 1.6816-47.377 8.8959-67.5286 20.3973v57.3491h77.6496V1.8791h-10.121Zm-69.4088-.0005v19.7498C55.5106 35.5988 35.4703 55.6317 21.5147 79.625H1.879V1.8786h77.6492Zm0 21.488C56.3208 37.0375 36.9098 56.4413 23.2531 79.625h56.2751V23.3666ZM1.8795 81.5036H20.439C11.2512 97.8055 4.8499 115.88 1.8795 135.085V81.5036Zm0 79.6254v9.528c1.7081 24.737 9.1191 47.909 20.9307 68.218h56.7185v-77.746H1.8795Zm0 77.746v-54.703c3.0387 19.646 9.6679 38.11 19.1978 54.703H1.8795Zm0 1.879h20.2938c13.9243 23.496 33.7129 43.122 57.3554 56.875V318.5H1.8795v-77.746ZM81.4083 318.5v-19.795c18.9127 10.661 40.2177 17.593 62.9107 19.795H81.4083Zm0-21.52c22.9097 13.076 49.4037 20.61 77.6497 20.774v-77H81.4083v56.226ZM238.587 318.5h-62.909c22.692-2.202 43.996-9.134 62.909-19.794V318.5Zm-77.649-.746c28.245-.163 54.74-7.698 77.649-20.773v-56.227h-77.649v77Zm79.528.746v-20.871c23.643-13.752 43.433-33.379 57.357-56.875h20.293V318.5h-77.65Zm0-22.609c22.833-13.45 41.991-32.449 55.61-55.137h-55.61v55.137Zm0-57.016h56.72c11.809-20.303 19.219-43.469 20.93-68.199v-9.547h-77.65v77.746Zm77.65-54.695c-3.04 19.644-9.668 38.104-19.197 54.695h19.197V184.18ZM23.9202 240.754c13.6185 22.688 32.7761 41.687 55.6085 55.136v-55.136H23.9202ZM22.1638 81.5036C10.7283 101.542 3.5563 124.317 1.8795 148.6v10.65h77.6492V81.5036H22.1638Zm59.2445 0h77.6497v5.1192H99.0806V159.25H81.4083V81.5036Zm17.6723 79.6254H81.4083v77.746h77.6497v-77.746h-34.031v72.059H99.0806v-72.059Zm25.9464-1.879h34.031v-46.696h-34.031v46.696Zm35.911-72.6272H224.3V159.25h14.287V81.5036h-77.649v5.1192ZM224.3 161.129h14.287v77.746h-77.649v-77.746h37.415v72.059H224.3v-72.059Zm-25.947-1.879v-46.696h-37.415v46.696h37.415Z" clip-rule="evenodd" opacity=".2"/></svg>
